X:5
T:Jump at the sun
C:Trad.
M:6/8
L:1/8
K:Am
"Am"A,CE ^D2E | A,CE ^D2E |1,3 AEE AEE | EDC "E"B,3 :|2,4 AEE "F"FED | "E"CDB, "Am"A,3 ::
"Am"AEE cBA | "G"BEE dcB |1,3 "F"cBA cBA | "E"BEE "F"F2F :|2,4 "Am"AEE "F"FED | "E"CDB, "Am"A,3 :|
